agir/front/components/genericComponents/images/event-card-default-bg.svg

<svg width="359" height="203" viewBox="0 0 359 203" fill="none" xmlns="http://www.w3.org/2000/svg">
<rect width="359" height="203" fill="#FAFAFA"/>
<path d="M190.09 162.922L160.979 133.789C144.902 117.7 144.776 91.7399 160.698 75.8062V75.8062C176.62 59.8726 202.56 59.9988 218.638 76.0882V76.0882C234.715 92.1776 234.841 118.137 218.919 134.071L190.09 162.922Z" fill="#EEEEEE"/>
<path fill-rule="evenodd" clip-rule="evenodd" d="M147.113 112.871L170.087 135.862L193.061 112.871C205.75 100.173 205.75 79.5861 193.061 66.8883C180.373 54.1906 159.801 54.1906 147.113 66.8883C134.424 79.5861 134.424 100.173 147.113 112.871ZM170.087 149.759L200.005 119.819C216.528 103.284 216.528 76.4751 200.005 59.9398C183.482 43.4045 156.692 43.4045 140.169 59.9398C123.646 76.4751 123.646 103.284 140.169 119.819L170.087 149.759Z" fill="#DFDFDF"/>
</svg>

<svg width="359" height="203" fill="none" xmlns="http://www.w3.org/2000/svg"><path fill="#FAFAFA" d="M0 0h359v203H0z"/><path d="m190.09 162.922-29.111-29.133c-16.077-16.089-16.203-42.05-.281-57.983 15.922-15.933 41.862-15.807 57.94.282 16.077 16.09 16.203 42.049.281 57.983l-28.829 28.851Z" fill="#EEE"/><path fill-rule="evenodd" clip-rule="evenodd" d="m147.113 112.871 22.974 22.991 22.974-22.991c12.689-12.698 12.689-33.285 0-45.983-12.688-12.697-33.26-12.697-45.948 0-12.689 12.698-12.689 33.285 0 45.983Zm22.974 36.888 29.918-29.94c16.523-16.535 16.523-43.344 0-59.88-16.523-16.535-43.313-16.535-59.836 0-16.523 16.536-16.523 43.345 0 59.88l29.918 29.94Z" fill="#DFDFDF"/></svg>
